dist/static/img/context/res-7.svg

<svg width="80" height="80" viewBox="0 0 80 80" fill="none" xmlns="http://www.w3.org/2000/svg">
<rect width="80" height="80" rx="40" fill="#1F5AFF"/>
<g clip-path="url(#clip0_1115_4129)">
<path d="M38.3996 60.8002H41.5996C42.0414 60.8002 42.3996 60.442 42.3996 60.0002C42.3996 59.5584 42.0414 59.2002 41.5996 59.2002H38.3996C37.9578 59.2002 37.5996 59.5584 37.5996 60.0002C37.5996 60.442 37.9578 60.8002 38.3996 60.8002Z" fill="white"/>
<path d="M26.3996 28C26.8414 28 27.1996 27.6418 27.1996 27.2V22.4H52.7996V28.8C52.7996 29.2418 53.1578 29.6 53.5996 29.6C54.0414 29.6 54.3996 29.2418 54.3996 28.8V19.2C54.3996 17.76 52.5532 16 50.3996 16H29.5996C27.3916 16.0026 25.6022 17.792 25.5996 20V27.2C25.5996 27.6418 25.9578 28 26.3996 28ZM27.1996 20C27.1996 18.6745 28.2741 17.6 29.5996 17.6H50.3996C51.786 17.6 52.7996 18.72 52.7996 19.2V20.8H27.1996V20Z" fill="white"/>
<path d="M53.5996 51.2002C53.1578 51.2002 52.7996 51.5584 52.7996 52.0002V56.0002H27.1996V52.8002C27.1996 52.3584 26.8414 52.0002 26.3996 52.0002C25.9578 52.0002 25.5996 52.3584 25.5996 52.8002V60.0002C25.6022 62.2082 27.3916 63.9976 29.5996 64.0002H50.3996C52.6076 63.9976 54.397 62.2082 54.3996 60.0002V52.0002C54.3996 51.5584 54.0414 51.2002 53.5996 51.2002ZM52.7996 60.0002C52.7996 61.3257 51.7251 62.4002 50.3996 62.4002H29.5996C28.2741 62.4002 27.1996 61.3257 27.1996 60.0002V57.6002H52.7996V60.0002Z" fill="white"/>
<path d="M38.4 18.4004H36.8C36.3582 18.4004 36 18.7586 36 19.2004C36 19.6422 36.3582 20.0004 36.8 20.0004H38.4C38.8418 20.0004 39.2 19.6422 39.2 19.2004C39.2 18.7586 38.8418 18.4004 38.4 18.4004Z" fill="white"/>
<path d="M43.1998 18.4004H41.5998C41.158 18.4004 40.7998 18.7586 40.7998 19.2004C40.7998 19.6422 41.158 20.0004 41.5998 20.0004H43.1998C43.6416 20.0004 43.9998 19.6422 43.9998 19.2004C43.9998 18.7586 43.6416 18.4004 43.1998 18.4004Z" fill="white"/>
<path d="M63.816 31.4892C63.6639 31.3061 63.4381 31.2002 63.2 31.2004H42.2016L41.7936 28.4492C41.6135 27.2754 40.6067 26.4067 39.4192 26.4004H36V28.0004H39.4192C39.8161 28.0001 40.1532 28.2909 40.2112 28.6836L43.0064 47.5516C43.1865 48.7254 44.1933 49.5941 45.3808 49.6004H47.3472C47.7807 50.8446 49.1407 51.5018 50.3848 51.0684C51.0725 50.8288 51.6132 50.2882 51.8528 49.6004H55.3472C55.789 50.8501 57.1603 51.505 58.4099 51.0631C59.6595 50.6212 60.3145 49.25 59.8726 48.0004C59.4308 46.7507 58.0595 46.0958 56.8099 46.5377C56.1264 46.7793 55.5888 47.317 55.3472 48.0004H51.8528C51.4193 46.7562 50.0593 46.099 48.8152 46.5324C48.1275 46.772 47.5868 47.3126 47.3472 48.0004H45.3808C44.9848 47.9983 44.649 47.7087 44.5888 47.3172L44.3344 45.6004H60.8C61.1845 45.6001 61.5145 45.3263 61.5856 44.9484L63.9856 32.1484C64.03 31.9144 63.9678 31.6727 63.816 31.4892ZM57.6 48.0004C58.0418 48.0004 58.4 48.3586 58.4 48.8004C58.4 49.2422 58.0418 49.6004 57.6 49.6004C57.1582 49.6004 56.8 49.2422 56.8 48.8004C56.8 48.3586 57.1582 48.0004 57.6 48.0004ZM49.6 48.0004C50.0418 48.0004 50.4 48.3586 50.4 48.8004C50.4 49.2422 50.0418 49.6004 49.6 49.6004C49.1582 49.6004 48.8 49.2422 48.8 48.8004C48.8 48.3586 49.1582 48.0004 49.6 48.0004ZM60.136 44.0004H44.0976L42.4392 32.8004H62.24L60.136 44.0004Z" fill="white"/>
<path d="M36.8 39.9996C36.8 34.2558 32.1438 29.5996 26.4 29.5996C20.6562 29.5996 16 34.2558 16 39.9996C16 45.7434 20.6562 50.3996 26.4 50.3996C32.141 50.393 36.7934 45.7406 36.8 39.9996ZM17.6 39.9996C17.6 35.1395 21.5399 31.1996 26.4 31.1996C31.2601 31.1996 35.2 35.1395 35.2 39.9996C35.2 44.8597 31.2601 48.7996 26.4 48.7996C21.5423 48.7939 17.6057 44.8573 17.6 39.9996Z" fill="white"/>
<path d="M27.2002 46.3998V45.4862C28.9083 45.0466 29.9366 43.3055 29.497 41.5974C29.1334 40.1848 27.8589 39.198 26.4002 39.1998C25.5165 39.1998 24.8002 38.4835 24.8002 37.5998C24.8002 36.7161 25.5165 35.9998 26.4002 35.9998C27.2839 35.9998 28.0002 36.7161 28.0002 37.5998C28.0002 38.0416 28.3584 38.3998 28.8002 38.3998C29.242 38.3998 29.6002 38.0416 29.6002 37.5998C29.5947 36.1451 28.6088 34.8771 27.2002 34.5134V33.5998C27.2002 33.158 26.842 32.7998 26.4002 32.7998C25.9584 32.7998 25.6002 33.158 25.6002 33.5998V34.5134C23.8921 34.953 22.8638 36.6941 23.3034 38.4022C23.667 39.8148 24.9415 40.8016 26.4002 40.7998C27.2839 40.7998 28.0002 41.5161 28.0002 42.3998C28.0002 43.2835 27.2839 43.9998 26.4002 43.9998C25.5165 43.9998 24.8002 43.2835 24.8002 42.3998C24.8002 41.958 24.442 41.5998 24.0002 41.5998C23.5584 41.5998 23.2002 41.958 23.2002 42.3998C23.2057 43.8545 24.1916 45.1225 25.6002 45.4862V46.3998C25.6002 46.8416 25.9584 47.1998 26.4002 47.1998C26.842 47.1998 27.2002 46.8416 27.2002 46.3998Z" fill="white"/>
<path d="M44.8 35.1996H56C56.4418 35.1996 56.8 34.8414 56.8 34.3996C56.8 33.9578 56.4418 33.5996 56 33.5996H44.8C44.3582 33.5996 44 33.9578 44 34.3996C44 34.8414 44.3582 35.1996 44.8 35.1996Z" fill="white"/>
<path d="M58.3996 35.1996H59.9996C60.4414 35.1996 60.7996 34.8414 60.7996 34.3996C60.7996 33.9578 60.4414 33.5996 59.9996 33.5996H58.3996C57.9578 33.5996 57.5996 33.9578 57.5996 34.3996C57.5996 34.8414 57.9578 35.1996 58.3996 35.1996Z" fill="white"/>
</g>
<defs>
<clipPath id="clip0_1115_4129">
<rect width="48" height="48" fill="white" transform="translate(16 16)"/>
</clipPath>
</defs>
</svg>

<svg width="80" height="80" viewBox="0 0 80 80" fill="none" xmlns="http://www.w3.org/2000/svg"><rect width="80" height="80" rx="40" fill="#1F5AFF"/><g clip-path="url(#clip0_1115_4129)" fill="#fff"><path d="M38.4 60.8h3.2a.8.8 0 000-1.6h-3.2a.8.8 0 000 1.6zM26.4 28a.8.8 0 00.8-.8v-4.8h25.6v6.4a.8.8 0 001.6 0v-9.6c0-1.44-1.847-3.2-4-3.2H29.6a4.005 4.005 0 00-4 4v7.2a.8.8 0 00.8.8zm.8-8a2.4 2.4 0 012.4-2.4h20.8c1.386 0 2.4 1.12 2.4 1.6v1.6H27.2V20z"/><path d="M53.6 51.2a.8.8 0 00-.8.8v4H27.2v-3.2a.8.8 0 00-1.6 0V60a4.005 4.005 0 004 4h20.8a4.005 4.005 0 004-4v-8a.8.8 0 00-.8-.8zm-.8 8.8a2.4 2.4 0 01-2.4 2.4H29.6a2.4 2.4 0 01-2.4-2.4v-2.4h25.6V60zM38.4 18.4h-1.6a.8.8 0 000 1.6h1.6a.8.8 0 000-1.6zm4.8 0h-1.6a.8.8 0 000 1.6h1.6a.8.8 0 000-1.6z"/><path d="M63.816 31.49a.8.8 0 00-.616-.29H42.202l-.408-2.75a2.415 2.415 0 00-2.375-2.05H36V28h3.42a.8.8 0 01.791.684l2.795 18.868a2.415 2.415 0 002.375 2.048h1.966a2.386 2.386 0 004.506 0h3.494a2.4 2.4 0 100-1.6h-3.494a2.386 2.386 0 00-4.506 0h-1.966a.806.806 0 01-.792-.683l-.255-1.717H60.8a.8.8 0 00.786-.652l2.4-12.8a.8.8 0 00-.17-.659zM57.6 48a.8.8 0 110 1.6.8.8 0 010-1.6zm-8 0a.8.8 0 110 1.6.8.8 0 010-1.6zm10.536-4H44.098l-1.659-11.2H62.24L60.136 44zM36.8 40c0-5.744-4.656-10.4-10.4-10.4C20.656 29.6 16 34.256 16 40c0 5.743 4.656 10.4 10.4 10.4 5.741-.007 10.393-4.66 10.4-10.4zm-19.2 0a8.8 8.8 0 118.8 8.8 8.81 8.81 0 01-8.8-8.8z"/><path d="M27.2 46.4v-.914a3.194 3.194 0 00-.8-6.286 1.6 1.6 0 111.6-1.6.8.8 0 001.6 0 3.2 3.2 0 00-2.4-3.087V33.6a.8.8 0 00-1.6 0v.913a3.194 3.194 0 00.8 6.287 1.6 1.6 0 11-1.6 1.6.8.8 0 00-1.6 0 3.2 3.2 0 002.4 3.086v.914a.8.8 0 001.6 0zm17.6-11.2H56a.8.8 0 000-1.6H44.8a.8.8 0 000 1.6zm13.6 0H60a.8.8 0 000-1.6h-1.6a.8.8 0 000 1.6z"/></g><defs><clipPath id="clip0_1115_4129"><path fill="#fff" transform="translate(16 16)" d="M0 0h48v48H0z"/></clipPath></defs></svg>
